packages/ffe-icons/icons/filled/md/app_blocking.svg

<svg xmlns="http://www.w3.org/2000/svg" height="24" viewBox="0 -960 960 960" width="24"><path d="M709.999-326.154q-63.692 0-108.769-45.077Q556.154-416.308 556.154-480q0-63.692 45.076-108.769 45.077-45.077 108.769-45.077 63.692 0 108.769 45.077Q863.845-543.692 863.845-480q0 63.692-45.077 108.769-45.077 45.077-108.769 45.077Zm0-47.692q15.077 0 28.919-4.154T766-390.461l-145.539-145.54q-8.308 13.24-12.462 27.082T603.845-480q0 44.308 30.923 75.231 30.923 30.923 75.231 30.923Zm89.539-50.153q9.077-13.693 12.846-27.308 3.77-13.616 3.77-28.693 0-44.308-30.924-75.231-30.923-30.923-75.231-30.923-15.077 0-28.919 4.154-13.841 4.154-27.081 12.461l145.539 145.54ZM292.309-60.001q-29.827 0-51.067-21.24-21.241-21.241-21.241-51.068v-695.382q0-29.827 21.241-51.067 21.24-21.241 51.067-21.241h375.382q29.827 0 51.067 21.241 21.241 21.24 21.241 51.067v116.153q0 12.75-8.629 21.375-8.629 8.624-21.384 8.624-12.756 0-21.371-8.624Q680-698.788 680-711.538v-18.463H280v500.002h400v-18.463q0-12.75 8.629-21.375 8.628-8.624 21.384-8.624 12.755 0 21.37 8.624 8.616 8.625 8.616 21.375v116.153q0 29.827-21.241 51.067-21.24 21.24-51.067 21.24H292.309Z"/></svg>

<svg xmlns="http://www.w3.org/2000/svg" height="24" viewBox="0 -960 960 960" width="24"><path d="M710-326.15q-63.69 0-108.77-45.08T556.15-480q0-63.69 45.08-108.77T710-633.85q63.69 0 108.77 45.08 45.07 45.08 45.07 108.77t-45.07 108.77Q773.69-326.15 710-326.15Zm0-47.7q15.08 0 28.92-4.15 13.84-4.15 27.08-12.46L620.46-536q-8.31 13.24-12.46 27.08-4.16 13.84-4.16 28.92 0 44.31 30.93 75.23 30.92 30.92 75.23 30.92ZM799.54-424q9.07-13.69 12.84-27.31 3.77-13.61 3.77-28.69 0-44.31-30.92-75.23T710-586.15q-15.08 0-28.92 4.15-13.84 4.15-27.08 12.46L799.54-424ZM292.31-60q-29.83 0-51.07-21.24Q220-102.48 220-132.31v-695.38q0-29.83 21.24-51.07Q262.48-900 292.31-900h375.38q29.83 0 51.07 21.24Q740-857.52 740-827.69v116.15q0 12.75-8.63 21.38-8.63 8.62-21.38 8.62-12.76 0-21.37-8.62-8.62-8.63-8.62-21.38V-730H280v500h400v-18.46q0-12.75 8.63-21.38 8.63-8.62 21.38-8.62 12.76 0 21.37 8.62 8.62 8.63 8.62 21.38v116.15q0 29.83-21.24 51.07Q697.52-60 667.69-60H292.31Z"/></svg>
